X: 368
T: Bir Gemim Var
C: Genç Osman
O: Turkey
F: http://compmusic.upf.edu/node/140
N: segah--turku--aksak--bir_gemim--ankara
N: makam= segah
N: form= turku
N: usul= aksak = 9/8
M: 9/8
L: 1/16
K: C _1/4B _1/4e ^f 
Q: 1/4=138
%%MIDI tuningsystem comma53
g3f e2d2 fgaf g2g4 | f3ef2 gee2 d2e2 =fge2  | 
w:  ARANAĞME  |   | 
d2de dc2B B^3/4ABc de=f^f g2 | g3fe2 d2fg afg2 g4  | 
w:   |   | 
f3e f2ge e2d2 g2g2 ed | d2 dedc2BB^3/4A Bcde =f^fg2  | 
w:   |   | 
G4 g3g g4 {d'}c'2_7/8b2 a2 | (3_bba g2fg agg4{d'}c'2 _7/8b2a2  | \
w:  *  Bir  ge mim  *  var_ *  a  |  man  *  *  *  a *  da *  la *  ra   | 
g3f =e2fa g4 fedc BA | 
w:  yas *  *  la *  nır   SAZ  | 
G4g3gg4{d'}c'2 _7/8b2a2  | (3_bbag2 fgag g4 {d'}c'2_7/8b2 a2 | \
w:  *  Bir  ge mim  *  var_ *  a  |  man  *  *  *  a *  da *  la *  ra   | 
g3f=e2 fag4zd efg2  | 
w:  yas *  *  la *  nır   SAZ  | 
g3f e3d fgaf g6 | f3ef2 gee2 d2e2 =fg=e2  | \
w:  Yağ *  mur  *  ya *  *  *  ğar   |  yel *  *  ken *  le ri  e fem   | 
d3e dc2B B4 cdef g2 | 
w:  ıs *  la *  *  nır   SAZ  | 
g3fe3dfg afg6  | f3e f2ge e2d2 e2=fg =e2 | \
w:  Yağ *  mur  *  ya *  *  *  ğar   |  yel *  *  ken *  le ri  e fem   | 
d3edc2BB4de fgfa  | 
w:  ıs *  la *  *  nır   SAZ  | 
g4 g3g g4 {d'}c'2b2 a2 | (3_bba g2fg agg4{d'}c'2 _7/8b2a2  | \
w:  *  Bir  gün_ o *  lur_ *  a  |  man  *  *  *  de *  li  *  gö *  nül   | 
g3f e2fa g.G.A.B .c.d.e.f .g2 | 
w:  us *  *  la *  nır   SAZ  | 
g3fe2 d2fg afg2 .g4  | f3e f2ge e2d2 =e2=fg e2 | 
w:  Ağ *  la ma  fi *  dan  *  boy lum   |  yol *  *  dan  *  gel dim_ e fem   | 
d2 dedc2BB^3/4A Bcde =f^fg2  | g3f e2d2 fgaf .g6 | 
w:  yor *  *  gu *  *  num   SAZ  |  Ben_ *  o  *  yâ *  *  *  rin   | 
f3ef2 gee2 d2g2 g2ed  | d2de dc2B B^3/4ABc de=f^f g2 | 
w:  e *  *  dâ *  sı na  ef fem   |  vur *  *  gu *  *  num   SAZ  | 
g3fe2 d2fg afg2 g4  | f3e f2ge e2d2 e2=fg e2 | 
w:  ARANAĞME  |   | 
d2 dedc2BB^3/4A Bcde =f^fg2  | g3f e2d2 fgaf g2g4 | 
w:   |   | 
f3ef2 gee2 d2g2 g2ed  | d2de dc2B B^3/4ABc de=f^f g2 | 
w:   |   | 
G4g3gg4{d'}c'2 _7/8b2a2  | (3_bbag2 fgag g4 {d'}c'2_7/8b2 a2 | \
w:  *  Bir  ge mim  *  var_ *  a  |  man  *  *  *  a *  da *  la *  ra   | 
g3f=e2 fag4fe dcBA  | 
w:  yas *  *  la *  nır   SAZ  | 
G4 g3g g4 {d'}c'2_7/8b2 a2 | (3_bba g2fg agg4{d'}c'2 _7/8b2a2  | \
w:  *  Bir  ge mim  *  var_ *  a  |  man  *  *  *  a *  da *  la *  ra   | 
g3f =e2fa g4 zdef g2 | 
w:  yas *  *  la *  nır   SAZ  | 
g3fe3dfg afg6  | f3e f2ge e2d2 e2=fg =e2 | \
w:  Yağ *  mur  *  ya *  *  *  ğar   |  yel *  *  ken *  le ri  e fem   | 
d3edc2BB4cd efg2  | 
w:  ıs *  la *  *  nır   SAZ  | 
g3f e3d fgaf g6 | f3ef2 gee2 d2e2 =fg=e2  | \
w:  Yağ *  mur  *  ya *  *  *  ğar   |  yel *  *  ken *  le ri  e fem   | 
d3e dc2B B4 defg fa | 
w:  ıs *  la *  *  nır   SAZ  | 
g4g3gg4{d'}c'2 b2a2  | (3_bbag2 fgag g4 {d'}c'2_7/8b2 a2 | \
w:  *  Bir  gün_ o *  lur_ *  a  |  man  *  *  *  de *  li  *  gö *  nül   | 
g3fe2 fag.G .A.B.c.d .e.f.g2  | 
w:  us *  *  la *  nır   SAZ  | 
g3f e2d2 fgaf g2.g4 | f3ef2 gee2 d2=e2 =fge2  | 
w:  Ağ *  la ma  fi *  dan  *  boy lum   |  yol *  *  dan  *  gel dim_ e fem   | 
d2de dc2B B^3/4ABc de=f^f g2 | g3fe2 d2fg af.g6  | 
w:  yor *  *  gu *  *  num   SAZ  |  Ben_ *  o  *  yâ *  *  *  rin   | 
f3e f2ge e2d2 g2g2 ed | d2 dedc2BB4z6  | |


